X: 4054
T: SIR JOHN MALCOLM
R: Strathspey.
%R: strathspey
B: James Kerr "Merry Melodies" v.4 p.08 #54
Z: 2016 John Chambers <jc:trillian.mit.edu>
M: C
L: 1/8
K: D
d |\
A>Bd>e f>de>f | A/A/A A>F A2 (A<d) |\
A>Bd>e f>de>f | B/B/B d>A B2-B ::\
b |\
a>ba>f e>de>f |
A/A/A A>F A2 (A<d) |\
[1 a>ba>f e>de>f | B/B/B d>A B2-B :|\
[2 A>Bd>e f>de>f | B/B/B d>A B2-B |]

%%sep 1 1 500
%%sep 1 1 500

